src/sd/res/effectpath_16.svg

<svg viewBox="0 0 16 16" xmlns="http://www.w3.org/2000/svg"><path d="m3.5 2c-.82843 0-1.5.67157-1.5 1.5 0 .65584.41359 1.20241 1 1.40625v.09375 1 5h-1v3h3v-1-1-1h-1v-5-1-.09375c.43209-.1502.75605-.47416.90625-.90625h.09375 1 5v1h1 1 1v-3h-3v1h-5-1-.09375c-.20384-.58641-.75041-1-1.40625-1zm0 1c.27614 0 .5.22386.5.5s-.22386.5-.5.5-.5-.22386-.5-.5.22386-.5.5-.5zm8.5 0h1v1h-1zm-2.5 2-1.5 3-3 .75 2.25 2.25-.75 3 3-1.5 3 1.5-.75-3 2.25-2.25-3-.75zm-6.5 7h1v1h-1z" fill="#232629"/></svg>

<?xml version="1.0" encoding="UTF-8" standalone="no"?>
<svg
   xmlns:dc="http://purl.org/dc/elements/1.1/"
   xmlns:cc="http://creativecommons.org/ns#"
   xmlns:rdf="http://www.w3.org/1999/02/22-rdf-syntax-ns#"
   xmlns:svg="http://www.w3.org/2000/svg"
   xmlns="http://www.w3.org/2000/svg"
   xmlns:sodipodi="http://sodipodi.sourceforge.net/DTD/sodipodi-0.dtd"
   xmlns:inkscape="http://www.inkscape.org/namespaces/inkscape"
   viewBox="0 0 16 16"
   version="1.1"
   id="svg4"
   sodipodi:docname="effectpath_16.svg"
   inkscape:export-filename="/home/jupiter007/Libreoffice yaru theme fullcolor/build/sd/res/effectpath_16.png"
   inkscape:export-xdpi="95"
   inkscape:export-ydpi="95"
   inkscape:version="0.92.5 (2060ec1f9f, 2020-04-08)">
  <metadata
     id="metadata10">
    <rdf:RDF>
      <cc:Work
         rdf:about="">
        <dc:format>image/svg+xml</dc:format>
        <dc:type
           rdf:resource="http://purl.org/dc/dcmitype/StillImage" />
      </cc:Work>
    </rdf:RDF>
  </metadata>
  <defs
     id="defs8" />
  <sodipodi:namedview
     pagecolor="#ffffff"
     bordercolor="#666666"
     borderopacity="1"
     objecttolerance="10"
     gridtolerance="10"
     guidetolerance="10"
     inkscape:pageopacity="0"
     inkscape:pageshadow="2"
     inkscape:window-width="1920"
     inkscape:window-height="1011"
     id="namedview6"
     showgrid="false"
     inkscape:zoom="14.75"
     inkscape:cx="7.2685205"
     inkscape:cy="6.3163744"
     inkscape:window-x="1920"
     inkscape:window-y="32"
     inkscape:window-maximized="1"
     inkscape:current-layer="svg4" />
  <path
     style="fill:#000000;fill-opacity:1;stroke:#000000;opacity:0.6;stroke-width:2;stroke-miterlimit:4;stroke-dasharray:none;stroke-linejoin:round"
     id="path866"
     d="M 9.5,5 8,8 5,8.75 7.25,11 6.5,14 9.5,12.5 12.5,14 11.75,11 14,8.75 11,8 Z" />
  <path
     d="M 9.5,5 8,8 5,8.75 7.25,11 6.5,14 9.5,12.5 12.5,14 11.75,11 14,8.75 11,8 Z"
     id="path855"
     style="fill:#fee581;fill-opacity:1" />
  <rect
     style="opacity:0.7;vector-effect:none;fill:#000000;fill-opacity:1;stroke:none;stroke-width:1;stroke-linecap:round;stroke-linejoin:round;stroke-miterlimit:4;stroke-dasharray:none;stroke-dashoffset:0;stroke-opacity:1"
     id="rect9084-4-4"
     width="4"
     height="4"
     x="0"
     y="0"
     transform="matrix(0,1,1,0,0,0)" />
  <rect
     style="opacity:1;vector-effect:none;fill:#aee3f8;fill-opacity:1;stroke:none;stroke-width:1;stroke-linecap:round;stroke-linejoin:round;stroke-miterlimit:4;stroke-dasharray:none;stroke-dashoffset:0;stroke-opacity:1"
     id="rect9101-4-4"
     width="2"
     height="2"
     x="1.0000002"
     y="1"
     transform="matrix(0,1,1,0,0,0)" />
  <rect
     transform="matrix(0,1,1,0,0,0)"
     y="10"
     x="0"
     height="4"
     width="4"
     id="rect832"
     style="opacity:0.7;vector-effect:none;fill:#000000;fill-opacity:1;stroke:none;stroke-width:1;stroke-linecap:round;stroke-linejoin:round;stroke-miterlimit:4;stroke-dasharray:none;stroke-dashoffset:0;stroke-opacity:1" />
  <rect
     transform="matrix(0,1,1,0,0,0)"
     y="11.000001"
     x="1.0000002"
     height="2"
     width="2"
     id="rect834"
     style="opacity:1;vector-effect:none;fill:#aee3f8;fill-opacity:1;stroke:none;stroke-width:1;stroke-linecap:round;stroke-linejoin:round;stroke-miterlimit:4;stroke-dasharray:none;stroke-dashoffset:0;stroke-opacity:1" />
  <rect
     transform="matrix(0,1,1,0,0,0)"
     y="0"
     x="10"
     height="4"
     width="4"
     id="rect840"
     style="opacity:0.7;vector-effect:none;fill:#000000;fill-opacity:1;stroke:none;stroke-width:1;stroke-linecap:round;stroke-linejoin:round;stroke-miterlimit:4;stroke-dasharray:none;stroke-dashoffset:0;stroke-opacity:1" />
  <rect
     transform="matrix(0,1,1,0,0,0)"
     y="1"
     x="11.000001"
     height="2"
     width="2"
     id="rect842"
     style="opacity:1;vector-effect:none;fill:#aee3f8;fill-opacity:1;stroke:none;stroke-width:1;stroke-linecap:round;stroke-linejoin:round;stroke-miterlimit:4;stroke-dasharray:none;stroke-dashoffset:0;stroke-opacity:1" />
  <rect
     style="opacity:1;fill:#1463a5;fill-opacity:1;fill-rule:nonzero;stroke:none;stroke-width:3.46410155;stroke-linecap:round;stroke-linejoin:round;stroke-miterlimit:4;stroke-dasharray:none;stroke-opacity:1"
     id="rect844"
     width="6"
     height="2"
     x="4"
     y="1.0000002" />
  <rect
     style="opacity:1;fill:#1463a5;fill-opacity:1;fill-rule:nonzero;stroke:none;stroke-width:3.46410155;stroke-linecap:round;stroke-linejoin:round;stroke-miterlimit:4;stroke-dasharray:none;stroke-opacity:1"
     id="rect848"
     width="2"
     height="6"
     x="1"
     y="3.9999995" />
</svg>
